X:1
T:He’ll Walk with Me All the Way
T:He’ll Walk with Me All the Way
T:Charles Hutchinson Gabriel
T:L. J. Williams, circa 1913
T:Public Domain Courtesy of the Cyber Hymnal™
C:Charles Hutchinson Gabriel
Z:Public Domain
Z:Courtesy of the Cyber Hymnal™
%%score ( 1 2 ) ( 3 4 )
L:1/8
Q:1/4=95
M:6/8
K:C
V:1 treble 
V:2 treble 
V:3 bass 
V:4 bass 
V:1
 [EG] | [Ec]>[Ec][Ec] [Fc][FB][FA] | [EG]>[FA][EG] [CE]2 [EG] | [DG]>[B,D][FA] [EG][CE][Ec] | %4
w: 1.~I|know that my Sav- ior will|ne- ver for- sake, I|know that my faith in Him|
w: 2.~He’ll|lead me in paths that are|plea- sant and green, And|show me new glo- ries, so|
w: 3.~My|eyes will new beau- ty and|glo- ry per- ceive, As|dai- ly His bless- ing life’|
 [^FA]>[FB][Fc] [=Fd]2 G | [Ge]>[Ge][Ge] [Fd][Ec][EG] | [FA]>[F^G][FA] [^Fd]2 [Fc] | %7
w: ne- ver will shake; My|jour- ney a path- way of|glad- ness He’ll make, He’ll|
w: long since un- seen; His|hand will I hold all se-|cure and se- rene, He’ll|
w: tan- gles un- weave; I’ll|hold to His hand and no|more let Him leave; He’ll|
 [FB]>[FB][FB] [FA]2 [FB] | [Ec]3- [Ec]2 ||"^Refrain" [EG] | c>Bc G2 [GA] | B3- [FB]2 G | %12
w: walk with me all the|way. *|He’ll|walk with me all the|way, He’ll walk|
w: walk with me all the|way. *||||
w: walk with me all the|way. *||||
 d>^cd [FA]2 [FB] | c3- [Ec]2 [EG] | [Ge]>[^F^d][Ge] [Ec]2 [Gc] | [Ac]>[^GB][Ac] [FA]2 [Af] | %16
w: with me all the way.|He’ll help me|* o’er sin the vic-|t’ry to win, And walk|
w: ||||
w: ||||
 [Ae]>[Ae][Ge] [Fd]2 [Fd] | [Ec]3- [Ec]2 |] %18
w: with me all the way.||
w: ||
w: ||
V:2
 x | x6 | x6 | x6 | x5 G | x6 | x6 | x6 | x5 || x | E3 G2 x | (F2 F G) x2 | F3 x3 | E2 E x3 | x6 | %15
 x6 | x6 | x5 |] %18
V:3
 [C,C] | [C,G,]>[C,G,][C,G,] [C,A,][C,B,][C,C] | [C,C]>[C,C][C,C] [C,G,]2 [C,C] | %3
w: ~|~ ~ ~ ~ ~ ~|~ ~ ~ ~ ~|
 [G,,B,]>[G,,G,][G,,B,] [C,C][C,G,][C,G,] | [D,C]>[D,B,][D,A,] [G,,B,]2 [G,B,] | %5
w: ~ ~ ~ ~ ~ ~|~ ~ ~ ~ ~|
 [C,C]>[C,C][C,C] [C,C][C,C][C,C] | [F,C]>[F,B,][F,C] [D,C]2 [D,D] | [G,D]>[G,D][G,D] [G,B,]2 G, | %8
w: ~ ~ ~ ~ ~ ~|~ ~ ~ ~ ~|~ ~ ~ ~ ~|
 [C,G,]3- [C,G,]2 || [C,C] | [C,G,]3 [E,C]2 [_E,C] | [D,G,]2 [D,G,] [D,G,]2 [G,B,] | %12
w: ~ *|He’ll|walk with me|all the way, He’ll|
 [G,B,]3 [G,B,]2 G, | [C,G,]2 [C,G,] [C,G,]2 [C,C] | [C,C]>[C,C][C,C] [C,C]2 [E,C] | %15
w: walk with me|all the way, *||
 [F,C]>[F,C][F,C] [F,C]2 [F,C] | [G,C]>[G,C][G,C] [G,B,]2 G, | [C,G,]3- [C,G,]2 |] %18
w: |||
V:4
 x | x6 | x6 | x6 | x6 | x6 | x6 | x5 G, | x5 || x | x6 | x6 | x5 G, | x6 | x6 | x6 | x5 G, | x5 |] %18

